src/asset/24px/layout.svg

<svg width="24" height="24" viewBox="0 0 24 24" fill="none" xmlns="http://www.w3.org/2000/svg">
<path fill-rule="evenodd" clip-rule="evenodd" d="M6 3C4.34315 3 3 4.34315 3 6V18C3 19.6569 4.34315 21 6 21H18C19.6569 21 21 19.6569 21 18V6C21 4.34315 19.6569 3 18 3H6ZM18 5H6C5.44772 5 5 5.44772 5 6V9.00003H19V6C19 5.44772 18.5523 5 18 5ZM19 11H11V19H18C18.5523 19 19 18.5523 19 18V11ZM9 11H5V18C5 18.5523 5.44772 19 6 19H9V11Z" fill="#808080"/>
</svg>

<svg width="24" height="24" fill="none" xmlns="http://www.w3.org/2000/svg"><path fill-rule="evenodd" clip-rule="evenodd" d="M6 3a3 3 0 00-3 3v12a3 3 0 003 3h12a3 3 0 003-3V6a3 3 0 00-3-3H6zm12 2H6a1 1 0 00-1 1v3h14V6a1 1 0 00-1-1zm1 6h-8v8h7a1 1 0 001-1v-7zM9 11H5v7a1 1 0 001 1h3v-8z" fill="gray"/></svg>
